X: 16
T: D-Dur-Schleuniger #5
M:3/4
L:1/8
C:trad.
S:j.m. schmalnauer: "tanz musik", bhlau, wien 1996 (compa bd. 5) 
K:D
df|a4  ^gb|(^gb)(ef^gA)|a4  ef|df A4 
|(a^g)(A^g)a2 |a^g A^g a2 |a4  ef|dfA4  |
egA4  |dfA4  |ceA2 A2 |dfA4   |
egA4  |dfA4  |ceA2 A2 |d4  ||
